X: 59
T:Colledge Hornpipe. WCl.59
M:C
L:1/8
Q:180
S:William Clarke MS,Lincoln,1770.
R:Hornpipe
O:Lincoln
A:England
Z:vmp.Barry Callaghan
K:Bb
BA|B2B,4FE|DFB4((3dcB)|c2C4cB|Ac f4 ga|!
bagf gfed|ecde BAGF|GBAc Bdce|d2(B2B2):|!
|:FE|DFBF DFBF|G2E2E2GF|=EGcG EGcG|A2F2F2 ed|!
ef g2-gfed|ecde BAGF|GBAc Bdce|d2B2-B2:|]
